!!!COM: Britten, (Edward) Benjamin
!!!OTL: [T806_Bri-w33p66m3-9]
**kern	**dynam	**kern	**dynam	**kern	**text	**dynam	**kern	**dynam	**kern	**dynam
*grp:A	*	*grp:A	*	*grp:B	*	*	*grp:A	*	*grp:A	*
*part5	*part5	*part4	*part4	*part3	*part3	*part3	*part2	*part2	*part1	*part1
*staff5	*	*staff4	*	*staff3	*staff3	*	*staff2	*	*staff1	*
*I"Violin II	*	*I"Violin I	*	*I"Soprano	*	*	*I"Oboe	*	*I"Flute	*
*I'Vln. II	*	*I'Vln. I	*	*I'S.	*	*	*I'Ob.	*	*I'Fl.	*
*clefG2	*	*clefG2	*	*clefG2	*	*	*clefG2	*	*clefG2	*
*k[f#c#g#]	*	*k[f#c#g#]	*	*k[f#c#g#]	*	*	*k[f#c#g#]	*	*k[f#c#g#]	*
*A:	*	*A:	*	*A:	*	*	*A:	*	*A:	*
*M6/8	*	*M6/8	*	*M6/8	*	*	*M6/8	*	*M6/8	*
=1	=1	=1	=1	=1	=1	=1	=1	=1	=1	=1
*tremolo	*	*tremolo	*	*	*	*	*	*	*	*
!!LO:TX:t=[Allegretto grazioso ([eighth]=160)
!LO:TX:a:t=[pizz.non div.]	!LO:DY:t=%s sempre	!LO:TX:a:t=[pizz.non div.]	!LO:DY:t=%s sempre	!	!	!	!	!LO:DY:t=sempre %s	!	!
16e 16cc#LL	4ryy	16a 16eeLL	4ryy	8ryy	.	.	8aL)j	4ryy	4%3r	.
16e 16cc#	.	16a 16ee	.	.	.	.	.	.	.	.
!	!	!	!	!LO:TX:a:i:rj:t=dolce	!	!	!	!	!	!
16e 16cc#	.	16a 16ee	.	8.ryy	4ryy	.	(8fn	.	.	.
16e 16cc#	.	16a 16ee	.	.	.	.	.	.	.	.
16e 16cc#	.	16a 16ee	.	.	.	.	8ccnJ	.	.	.
16e 16cc#	.	16a 16ee	.	16ryy	4ryy	.	.	.	.	.
16e 16cc#	.	16a 16ee	.	4ryy	4ryy	.	8b-XL	.	.	.
16e 16cc#	.	16a 16ee	.	.	.	.	.	.	.	.
16e 16cc#	.	16a 16ee	.	.	.	.	8ff#X	.	.	.
16e 16cc#	.	16a 16ee	.	.	.	.	.	.	.	.
16e 16cc#	.	16a 16ee	.	8ryy	4ryy	.	8eeJ	.	.	.
16e 16cc#JJ	.	16a 16eeJJ	.	.	.	.	.	.	.	.
=2	=2	=2	=2	=2	=2	=2	=2	=2	=2	=2
16e 16cc#LL	.	16a 16eeLL	.	8.ryy	4ryy	.	8aL)	.	4%3r	.
16e 16cc#	.	16a 16ee	.	.	.	.	.	.	.	.
16e 16cc#	.	16a 16ee	.	.	.	.	(8fn	.	.	.
16e 16cc#	.	16a 16ee	.	16ryy	4ryy	.	.	.	.	.
16e 16cc#	.	16a 16ee	.	8ryy	4ryy	.	8ccnJ	.	.	.
16e 16cc#	.	16a 16ee	.	.	.	.	.	.	.	.
16e 16cc#	.	16a 16ee	.	8ryy	.	.	8b-XL	.	.	.
16e 16cc#	.	16a 16ee	.	.	.	.	.	.	.	.
16e 16cc#	.	16a 16ee	.	8ryy	4ryy	.	8ff#X	.	.	.
16e 16cc#	.	16a 16ee	.	.	.	.	.	.	.	.
16e 16cc#	.	16a 16ee	.	8ryy	4ryy	.	8eeJ	.	.	.
16e 16cc#JJ	.	16a 16eeJJ	.	.	.	.	.	.	.	.
=3	=3	=3	=3	=3	=3	=3	=3	=3	=3	=3
16e 16cc#LL	.	16a 16eeLL	.	16ryy	.	.	8aL)	.	4%3r	.
16e 16cc#	.	16a 16ee	.	16ryy	4ryy	.	.	.	.	.
!	!	!	!	!	!	!	!LO:S:a	!	!	!
16e 16cc#	.	16a 16ee	.	8.ryy	4ryy	.	(8fn	.	.	.
16e 16cc#	.	16a 16ee	.	.	.	.	.	.	.	.
16e 16cc#	.	16a 16ee	.	.	.	.	8ccnJ	.	.	.
16e 16cc#	.	16a 16ee	.	16ryy	4ryy	.	.	.	.	.
16e 16cc#	4ryy	16a 16ee	4ryy	8.ryy	4ryy	.	8b-XL	.	.	.
16e 16cc#	.	16a 16ee	.	.	.	.	.	.	.	.
16e 16cc#	.	16a 16ee	.	.	.	.	8ff#X	4ryy	.	.
16e 16cc#	.	16a 16ee	.	16ryy	4ryy	4ryy	.	.	.	.
16e 16cc#	.	16a 16ee	.	16ryy	4ryy	.	8eeJ	.	.	.
16e 16cc#JJ	.	16a 16eeJJ	.	16ryy	4ryy	4ryy	.	.	.	.
!!linebreak:original
=4	=4	=4	=4	=4	=4	=4	=4	=4	=4	=4
!LO:TX:b:i:t=poco	!	!LO:TX:b:i:t=poco	!	!	!	!	!	!	!	!
16e 16cc#LL	4ryy	16a 16eeLL	4ryy	4ryy	4ryy	.	8bbnL	4ryy	4.r	.
16e 16cc#	.	16a 16ee	.	.	.	.	.	.	.	.
16e 16cc#	.	16a 16ee	.	.	.	.	8ddd	4ryy	.	.
16e 16cc#	4ryy	16a 16ee	4ryy	.	.	.	.	.	.	.
16e 16cc#	.	16a 16ee	.	8ryy	4ryy	.	8ccc#XJ	.	.	.
16e 16cc#	.	16a 16ee	.	.	.	.	.	.	.	.
16e 16cc#	.	16a 16ee	.	8ryy	.	.	8gg#L	.	8r	.
16e 16cc#	4ryy	16a 16ee	4ryy	.	.	.	.	.	.	.
16e 16cc#	.	16a 16ee	.	16ryy	.	.	8dd#XJ)	4ryy	8r	.
16e 16cc#	.	16a 16ee	.	16ryy	4ryy	.	.	.	.	.
!	!	!	!	!	!	!	!	!	!LO:TX:a:t=Solo	!LO:DY:b:i:t=%s dolce
16e 16cc#	.	16a 16ee	.	16ryy	4ryy	.	8r	.	(8ddn	4ryy
16e 16cc#JJ	.	16a 16eeJJ	.	16ryy	4ryy	.	.	.	.	.
=5	=5	=5	=5	=5	=5	=5	=5	=5	=5	=5
16b^LL	.	16f#^ 16dd#XLL	.	8.ryy	4ryy	.	4%3r	.	8ggnL	.
16b^	.	16f#^ 16dd#X	.	.	.	.	.	.	.	.
16b^	.	16f#^ 16dd#X	.	.	.	.	.	.	8aa	.
16b^	.	16f#^ 16dd#X	.	16ryy	4ryy	.	.	.	.	.
16b^	.	16f#^ 16dd#X	.	8ryy	4ryy	.	.	.	8cccnJ	.
16b^	.	16f#^ 16dd#X	.	.	.	.	.	.	.	.
16b^	.	16f#^ 16dd#X	.	16ryy	.	.	.	.	8bbL	.
16b^	.	16f#^ 16dd#X	.	16ryy	4ryy	.	.	.	.	.
16b^	.	16f#^ 16dd#X	.	8ryy	4ryy	.	.	.	8fff#)	.
16b^	.	16f#^ 16dd#X	.	.	.	.	.	.	.	.
16b^	.	16f#^ 16dd#X	.	16ryy	.	.	.	.	(8ddJ	.
16b^JJ	.	16f#^ 16dd#XJJ	.	16ryy	4ryy	.	.	.	.	.
=6	=6	=6	=6	=6	=6	=6	=6	=6	=6	=6
16b^LL	.	16f#^ 16dd#XLL	.	16ryy	4ryy	.	4%3r	.	8ggnL	.
16b^	.	16f#^ 16dd#X	.	16ryy	4ryy	.	.	.	.	.
16b^	.	16f#^ 16dd#X	.	8.ryy	4ryy	.	.	.	8aa	.
16b^	.	16f#^ 16dd#X	.	.	.	.	.	.	.	.
16b^	.	16f#^ 16dd#X	.	.	.	.	.	.	8cccXJ	.
16b^	.	16f#^ 16dd#X	.	16ryy	4ryy	.	.	.	.	.
16b^	.	16f#^ 16dd#X	.	8.ryy	4ryy	.	.	.	8bbL	.
16b^	.	16f#^ 16dd#X	.	.	.	.	.	.	.	.
16b^	.	16f#^ 16dd#X	.	.	.	.	.	.	8fff#)	.
16b^	.	16f#^ 16dd#X	.	16ryy	4ryy	.	.	.	.	.
16b^	.	16f#^ 16dd#X	.	8ryy	4ryy	.	.	.	(8ddJ	4ryy
16b^JJ	.	16f#^ 16dd#XJJ	.	.	.	.	.	.	.	.
=7	=7	=7	=7	=7	=7	=7	=7	=7	=7	=7
16b^LL	.	16f#^ 16dd#XLL	.	16ryy	.	.	4%3r	.	8ggnL	.
!	!LO:HP:t=poco %s	!	!LO:HP:t=poco %s	!	!	!	!	!	!	!
16b^	4ryy	16f#^ 16dd#X	4ryy	16ryy	4ryy	4ryy	.	.	.	.
16b^	.	16f#^ 16dd#X	.	16ryy	4ryy	.	.	.	8ffn	.
16b^	.	16f#^ 16dd#X	.	16ryy	4ryy	.	.	.	.	.
16b^	.	16f#^ 16dd#X	.	8.ryy	4ryy	.	.	.	8bb-XJ	.
16bJJ	.	16f#^ 16dd#XJJ	.	.	.	.	.	.	.	.
16d 16bLL	.	16gnLL	.	.	.	.	.	.	8ee-XL)	.
16d 16b	.	16gn	.	16ryy	4ryy	.	.	.	.	.
16d 16b	.	16gn	.	8.ryy	4ryy	.	.	.	(8aa-Xi	.
16d 16b	.	16gn	.	.	.	.	.	.	.	4ryy
16d 16b	.	16gn	.	.	.	.	.	.	8gg-XJ	.
16d 16bJJ	.	16gnJJ	.	16ryy	4ryy	.	.	.	.	4ryy
*	*	*Xtremolo	*	*	*	*	*	*	*	*
*Xtremolo	*	*	*	*	*	*	*	*	*	*
=	=	=	=	=	=	=	=	=	=	=
*-	*-	*-	*-	*-	*-	*-	*-	*-	*-	*-
!!!system-decoration: [(s1,s2)]s3[(s4,s5)]
!!!RDF**kern: i = marked note, color="hotpink", text="extra("
!!!RDF**kern: j = marked note, color="magenta", text="extra)"
!!!EED:Jason Lee
!!!EEV:2021/11/19
